X:1
T:Up in the Air
T:Up in the Air
T:Nathaniel Gow
C:Nathaniel Gow
L:1/8
M:4/4
K:G
V:1 treble 
V:1
 g/a/ |"G" b<g g2 d<B B2 |"C" c<e c<e"D" A3 B/c/ |"G" d<B B2"Em" G<E E2 | %4
"Am" c>A"Em" B>G"D" G/F/E/D/ D g/a/ |"G" b<g g2 d<B B2 |"C" c<e c<e"D" A3 B/c/ | %7
"G" d<B B2"Em" e<E E>G |"D" G/F/E/D/ DE/F/"G" G2 z || d/c/ |"G" B<d d2 d<b b>a | %11
"C" g>e e>d"D" d3 d/c/ |"G" B<d d2"Em" e>B"Am" [Ec]2 |"D" [Fd]>A"Em" [EB]>G"D" [DG]/F/E/D/ DE/F/ | %14
"G" G<B B2"Bm" B<d d2 |"G" [Gg]>d"C" [Ge]>d"G" [DGd]4 |"G" [dd']<b b<g"C" [Gg]<e e<c | %17
"G" B>G"D7" A>F"G" G2 z |] %18

